src/pos-icons/email-minus-outline.svg

<svg height="24" viewBox="0 0 24 24" width="24" xmlns="http://www.w3.org/2000/svg"><path d="m16 18v2h8v-2zm-2 0h-11v-10l8 5 8-5v8h2v-10c0-1.1-.9-2-2-2h-16c-1.1 0-2 .9-2 2v12c0 1.1.9 2 2 2h11zm5-12-8 5-8-5z"/></svg>

<?xml version="1.0" encoding="UTF-8"?><!DOCTYPE svg PUBLIC "-//W3C//DTD SVG 1.1//EN" "http://www.w3.org/Graphics/SVG/1.1/DTD/svg11.dtd"><svg xmlns="http://www.w3.org/2000/svg" xmlns:xlink="http://www.w3.org/1999/xlink" version="1.1" id="mdi-email-minus-outline" width="24" height="24" viewBox="0 0 24 24"><path d="M16 18V20H24V18H16M14 18H3V8L11 13L19 8V16H21V6C21 4.9 20.1 4 19 4H3C1.9 4 1 4.9 1 6V18C1 19.1 1.9 20 3 20H14V18M19 6L11 11L3 6H19Z" /></svg>
